!!!Genre:	Zhok
!!!Mode:	Altered Dorian
!!!Listening/dance:	dance
!!!:	*B-:; *G:frey
!!!One_Mode:	no
**kern
*I"P1
*clefG2
*k[b-]
*g:dor
*M3/4
*>A
=1
4d
4g
8b-L
8ddJ
=2
4cc#X
4dd
8b-L
8ddJ
=3
4cc#X
4dd
8b-L
8ddJ
=4
4cc#X
4dd
12b-L
12a
12gJ
=5
4ff
4ee
4dd
=6
4cc#X
4b-
4cc#
=7
2dd
4gg
=8
2.gg
=9||
4d
4g
8b-L
8ddJ
=10
4cc#X
4dd
8b-L
8ddJ
=11
4cc#X
4dd
8b-L
8ddJ
=12
4cc#X
4dd
12b-L
12a
12gJ
=13
4a
4b-
4a
=14
4a
4g
4f#X
=15
2.g
=16
4g
4r
4r
=17||
*>B
*k[b-e-]
*>bM
*-
